!!!!SEGMENT: pl-cz--iii-594b--004_rzepko-adolf--missa-sanctus.krn
!!!cenid: 18xx:1137
!!!COM: Rzepko, Adolf
!!!COM-rismid: pe30020315
!!!CDT: 1825-1892
!!!CNT: Polish
!!!OPR: Missa
!!!OTL: Sanctus
!!!OMV: 004
!!!PDT: 1873
!!!AGN: Sacred; Mass
!!!SMS-siglum: PL-CZ
!!!SMS-shelfmark: III-594b
!!!SMS-shelfwork: 001-004 M
!!!SMS-variant:
!!!SMS-altvar:
!!!NIFC-rismid: 300001137
!!!URL-scan: http://repozytorium.nifc.pl/skany/pl-cz-nut--iii-594
!!!ONB-nifc: UWAGA: części Mszy: Kyrie, Gloria, Credo, Sanctus, Benedictus, Agnus Dei. Uwaga: msza w źródle druga w kolejności, od skanu nr 0023, RISM ID 300001137.
!!!key: C
**kern	**fba	**dynam	**kern	**dynam	**kern	**dynam	**kern	**dynam	**kern	**text	**dynam	**kern	**dynam	**kern	**dynam	**kern	**dynam	**kern	**dynam
*	*	*	*group3	*	*group3	*	*group3	*	*	*	*	*group2	*	*group2	*	*group1	*	*group1	*
*part9	*part9	*part9	*part8	*part8	*part7	*part7	*part6	*part6	*part5	*part5	*part5	*part4	*part4	*part3	*part3	*part2	*part2	*part1	*part1
*staff9	*	*	*staff8	*	*staff7	*	*staff6	*	*staff5	*staff5	*	*staff4	*	*staff3	*	*staff2	*	*staff1	*
*I"Organo	*	*	*I"Violino in F obligato	*	*I"Violino 2do.	*	*I"Violino 1mo	*	*I"Sopran.	*	*	*I"Clarino in C IIdo	*	*I"Clarino in C: 1mo	*	*I"Clarinetto i C.	*	*I"Flauto	*
*I'org	*	*	*I'vl in F	*	*I'vl 2	*	*I'vl 1	*	*I'S	*	*	*I'clno 2 in C	*	*I'clno 1 in C	*	*I'cl in C	*	*I'fl	*
*Iorgan	*	*	*Ivioln	*	*Ivioln	*	*Ivioln	*	*Isoprn	*	*	*Itromp	*	*Itromp	*	*Iclars	*	*Iflt	*
*ICklav	*	*	*ICstr	*	*ICstr	*	*ICstr	*	*ICvox	*	*	*ICbras	*	*ICbras	*	*ICww	*	*ICww	*
*IGcont	*	*	*	*	*	*	*	*	*IGsolo	*	*	*	*	*	*	*	*	*	*
*clefF4	*	*	*clefG2	*	*clefG2	*	*clefG2	*	*clefC1	*	*	*clefG2	*	*clefG2	*	*clefG2	*	*clefG2	*
*	*	*	*ITrd4c7	*	*	*	*	*	*	*	*	*	*	*	*	*	*	*	*
*k[]	*	*	*k[]	*	*k[]	*	*k[]	*	*k[]	*	*	*k[]	*	*k[]	*	*k[]	*	*k[]	*
*C:	*	*	*C:	*	*C:	*	*C:	*	*C:	*	*	*C:	*	*C:	*	*C:	*	*C:	*
*M4/4	*	*	*M4/4	*	*M4/4	*	*M4/4	*	*M4/4	*	*	*M4/4	*	*M4/4	*	*M4/4	*	*M4/4	*
*met(c)	*	*	*met(c)	*	*met(c)	*	*met(c)	*	*met(c)	*	*	*met(c)	*	*met(c)	*	*met(c)	*	*met(c)	*
*all\right	*	*	*all\right	*	*all\right	*	*all\right	*	*all\right	*	*	*all\right	*	*all\right	*	*all\right	*	*all\right	*
=1	=1	=1	=1	=1	=1	=1	=1	=1	=1	=1	=1	=1	=1	=1	=1	=1	=1	=1	=1
!LO:TX:a:Bi:t=Maestoso	!	!LO:DY:rj	!LO:TX:a:Bi:t=Maestoso	!LO:DY:rj	!LO:TX:a:Bi:t=Maestoso	!	!LO:TX:a:Bi:t=Maestoso	!	!LO:TX:a:Bi:t=Maestoso	!	!LO:DY:rj	!	!LO:DY:rj	!LO:TX:a:Bi:t=Maestoso	!LO:DY:rj	!LO:TX:a:Bi:t=Maestoso	!LO:DY:rj	!LO:TX:a:Bi:t=Maestoso	!
4.C\	8_ 3_	f	1g 1G	f	1cc 1e	.	1ccc 1ee	.	1cc	San-	f	1c	f	1cc	f	1cc	f	1ccc	.
8BB\	.	.	.	.	.	.	.	.	.	.	.	.	.	.	.	.	.	.	.
8.C\L	.	.	.	.	.	.	.	.	.	.	.	.	.	.	.	.	.	.	.
16D\K	.	.	.	.	.	.	.	.	.	.	.	.	.	.	.	.	.	.	.
8.E\	.	.	.	.	.	.	.	.	.	.	.	.	.	.	.	.	.	.	.
16F\Jk	.	.	.	.	.	.	.	.	.	.	.	.	.	.	.	.	.	.	.
=2	=2	=2	=2	=2	=2	=2	=2	=2	=2	=2	=2	=2	=2	=2	=2	=2	=2	=2	=2
*2\right	*	*	*2\right	*	*	*	*	*	*2\right	*	*	*	*	*	*	*2\right	*	*	*
2G\	5 3	.	2g\	.	1b 1d	.	1bb 1dd	.	2b\	-ctus	.	1G	.	1g	.	2gg\	.	1bb	.
2G#X\	7 3	.	2f\	.	.	.	.	.	2r	.	.	.	.	.	.	2ff\	.	.	.
=3	=3	=3	=3	=3	=3	=3	=3	=3	=3	=3	=3	=3	=3	=3	=3	=3	=3	=3	=3
4A\	5_ 3_	.	1c	.	1a 1e	.	1aa 1cc	.	1a	San-	.	1c	.	1e	.	1ee	.	1aa	.
8.AA/L	.	.	.	.	.	.	.	.	.	.	.	.	.	.	.	.	.	.	.
16BB/Jk	.	.	.	.	.	.	.	.	.	.	.	.	.	.	.	.	.	.	.
8.C\L	.	.	.	.	.	.	.	.	.	.	.	.	.	.	.	.	.	.	.
16BB\K	.	.	.	.	.	.	.	.	.	.	.	.	.	.	.	.	.	.	.
8.C\	.	.	.	.	.	.	.	.	.	.	.	.	.	.	.	.	.	.	.
16D#X\Jk	.	.	.	.	.	.	.	.	.	.	.	.	.	.	.	.	.	.	.
=4	=4	=4	=4	=4	=4	=4	=4	=4	=4	=4	=4	=4	=4	=4	=4	=4	=4	=4	=4
*	*	*	*	*	*	*	*2\right	*	*	*	*	*	*	*	*	*	*	*2\right	*
2E\	#3	.	2e 2B/	.	2g#X 2B/	.	2gg#X 2b\	.	(2g#X\	-ctus	.	2e/	.	2e/	.	2ee\	.	2gg#X\	.
!LO:TX:a:i:t=uniso	!	!	!	!	!	!	!	!	!	!	!	!	!	!	!	!	!	!	!
2E\	.	.	2e/	.	2e/	.	2eee\	.	2ee\)	.	.	2r	.	2r	.	2ee\	.	2r	.
=5	=5	=5	=5	=5	=5	=5	=5	=5	=5	=5	=5	=5	=5	=5	=5	=5	=5	=5	=5
!	!	!	!	!	!	!	!	!	!	!	!	!LO:TX:a:t=2	!	!LO:TX:a:t=2	!	!	!	!LO:TX:t=P:problem:brak taktów nr 5-6	!
4.F\	.	.	4.f\	.	4.f/	.	4.fff\	.	(4.ff\	Do-	.	0r	.	0r	.	4.ff\	.	1ryy	.
8E\	.	.	8e\	.	8e/	.	8eee\	.	8ee\)	.	.	.	.	.	.	8ee\	.	.	.
4.G#X\	3	.	4.d\	.	4.b 4.f/	.	4.ddd\	.	4dd\	-mi-	.	.	.	.	.	4.dd\	.	.	.
.	.	.	.	.	.	.	.	.	4cc\	-nus	.	.	.	.	.	.	.	.	.
8A\	3	.	8c\	.	8a 8e/	.	8ccc\	.	.	.	.	.	.	.	.	8cc\	.	.	.
=6	=6	=6	=6	=6	=6	=6	=6	=6	=6	=6	=6	=6	=6	=6	=6	=6	=6	=6	=6
4.E\	#3	.	4.g#X\	.	4.g#X/	.	4.bb\	.	4.b\	De-	.	.	.	.	.	4.b\	.	1ryy	.
8E\	6 4	.	8a 8e\	.	8a 8e/	.	8ccc\	.	8cc\	-us	.	.	.	.	.	8cc\	.	.	.
4E\	#3	.	4g#\	.	4g#/	.	4.bb\	.	4.b\	Sa-	.	.	.	.	.	4.b\	.	.	.
4BB/	7 #3	.	4f#X\	.	4f#X/	.	.	.	.	.	.	.	.	.	.	.	.	.	.
.	.	.	.	.	.	.	8aa\	.	8a\	-ba-	.	.	.	.	.	8a\	.	.	.
=7	=7	=7	=7	=7	=7	=7	=7	=7	=7	=7	=7	=7	=7	=7	=7	=7	=7	=7	=7
4E\	#	.	4e/	.	4g#X 4B/	.	4gg#X\	.	4g#X\	-oth	.	2r	.	2r	.	4g#X\	.	2r	.
4BB\	7 #3	.	4d#X 4BX/	.	4a 4f#X/	.	4bt\	.	4r	.	.	.	.	.	.	4bt\	.	.	.
4E\	#3	.	4e 4B/	.	4e/	.	4ee\	.	2r	.	.	4e/	.	4e/	.	4ee\	.	4r	.
4BB\	7 #3	.	4d# 4B/	.	4a 4f#/	.	4bbt\	.	.	.	.	4r	.	4r	.	4b\	.	4bbt\	.
!	!	!	!	!	!	!	!	!	!	!	!	!	!	!	!	!LO:LB:g=original	!	!	!
=8	=8	=8	=8	=8	=8	=8	=8	=8	=8	=8	=8	=8	=8	=8	=8	=8	=8	=8	=8
!	!	!	!	!	!	!	!	!	!LO:TX:a:t=2	!	!	!	!	!	!	!	!	!	!
4E\	#	.	4e 4B/	.	4g#X 4B/	.	4eee\	.	0r	.	.	4e/	.	4e/	.	4ee\	.	4eee\	.
4r	.	.	4r	.	4r	.	4r	.	.	.	.	4r	.	4r	.	4r	.	4r	.
4E\	8	.	4E/	.	4e/	.	2r	.	.	.	.	2r	.	2r	.	2r	.	2ryy	.
4E\	8	.	4E/	.	4e/	.	.	.	.	.	.	.	.	.	.	.	.	.	.
=9	=9	=9	=9	=9	=9	=9	=9	=9	=9	=9	=9	=9	=9	=9	=9	=9	=9	=9	=9
*^	*	*	*	*	*	*	*	*	*	*	*	*	*	*	*	*	*	*	*
*tremolo	*	*	*	*tremolo	*	*tremolo	*	*	*	*	*	*	*	*	*	*	*	*	*	*
!	!	!	!	!	!	!	!	!LO:TX:a:t=1.	!	!	!	!	!	!LO:DY:rj	!	!	!LO:TX:a:t=1.	!	!LO:TX:t=P:problem:brak taktu nr 9	!
8E/L	4EE\	8_	.	8E/L	.	8e/L	.	1r	.	.	.	.	1e	p	1e	.	1r	.	1ryy	.
8E/	.	.	.	8E/	.	8e/	.	.	.	.	.	.	.	.	.	.	.	.	.	.
8E/	4EE\	.	.	8E/	.	8e/	.	.	.	.	.	.	.	.	.	.	.	.	.	.
8E/J	.	.	.	8E/J	.	8e/J	.	.	.	.	.	.	.	.	.	.	.	.	.	.
8E/L	4EE\	.	.	8E/L	.	8e/L	.	.	.	.	.	.	.	.	.	.	.	.	.	.
8E/	.	.	.	8E/	.	8e/	.	.	.	.	.	.	.	.	.	.	.	.	.	.
8E/	4EE\	.	.	8E/	.	8e/	.	.	.	.	.	.	.	.	.	.	.	.	.	.
8E/J	.	.	.	8E/J	.	8e/J	.	.	.	.	.	.	.	.	.	.	.	.	.	.
=10	=10	=10	=10	=10	=10	=10	=10	=10	=10	=10	=10	=10	=10	=10	=10	=10	=10	=10	=10	=10
*	*	*	*	*rep	*	*rep	*	*	*	*	*	*	*	*	*	*	*	*	*	*
8E/L	4EE\	7 #3	.	8E/L	.	8e/L	.	2ddd\	.	(2dd\	San-	.	1e	.	1e	.	2b\	.	2bb\	.
8E/	.	.	.	8E/	.	8e/	.	.	.	.	.	.	.	.	.	.	.	.	.	.
8E/	4EE\	.	.	8E/	.	8e/	.	.	.	.	.	.	.	.	.	.	.	.	.	.
8E/J	.	.	.	8E/J	.	8e/J	.	.	.	.	.	.	.	.	.	.	.	.	.	.
8E/L	4EE\	6 4	.	8E/L	.	8e/L	.	2ccc\	.	2cc\)	.	.	.	.	.	.	2a/	.	2aa\	.
8E/	.	.	.	8E/	.	8e/	.	.	.	.	.	.	.	.	.	.	.	.	.	.
8E/	4EE\	.	.	8E/	.	8e/	.	.	.	.	.	.	.	.	.	.	.	.	.	.
8E/J	.	.	.	8E/J	.	8e/J	.	.	.	.	.	.	.	.	.	.	.	.	.	.
*	*	*	*	*Xrep	*	*Xrep	*	*	*	*	*	*	*	*	*	*	*	*	*	*
!LO:LB:g=original	!	!	!	!	!	!	!	!	!	!	!	!	!	!	!	!	!	!	!	!
=11	=11	=11	=11	=11	=11	=11	=11	=11	=11	=11	=11	=11	=11	=11	=11	=11	=11	=11	=11	=11
8E/L	4EE\	#3	.	8E/L	.	8e/L	.	2bb\	.	2b\	-ctus	.	2.e/	.	2.e/	.	2g#X/	.	2gg#X\	.
8E/	.	.	.	8E/	.	8e/	.	.	.	.	.	.	.	.	.	.	.	.	.	.
8E/	4EE\	.	.	8E/	.	8e/	.	.	.	.	.	.	.	.	.	.	.	.	.	.
8E/J	.	.	.	8E/J	.	8e/J	.	.	.	.	.	.	.	.	.	.	.	.	.	.
*Xtremolo	*	*	*	*Xtremolo	*	*Xtremolo	*	*	*	*	*	*	*	*	*	*	*	*	*	*
!LO:TX:a:i:t=uniso	!	!	!	!	!	!	!	!	!	!	!	!	!	!	!	!	!	!	!	!
2ryy	8E\L	.	.	8E/L	.	8e/L	.	2r	.	2r	.	.	.	.	.	.	8e/L	.	2r	.
.	8E\J	.	.	8E/J	.	8e/J	.	.	.	.	.	.	.	.	.	.	8e/J	.	.	.
.	16F\LL	.	.	(16F/LL	.	(16f/LL	.	.	.	.	.	.	4r	.	4r	.	(16f/LL	.	.	.
.	16E\	.	.	16E/	.	16e/	.	.	.	.	.	.	.	.	.	.	16e/	.	.	.
.	16D#X\	.	.	16D#X/	.	16d#X/	.	.	.	.	.	.	.	.	.	.	16d#X/	.	.	.
.	16E\JJ	.	.	16E/JJ)	.	16e/JJ)	.	.	.	.	.	.	.	.	.	.	16e/JJ)	.	.	.
=12	=12	=12	=12	=12	=12	=12	=12	=12	=12	=12	=12	=12	=12	=12	=12	=12	=12	=12	=12	=12
*tremolo	*	*	*	*tremolo	*	*tremolo	*	*	*	*	*	*	*	*	*	*	*	*	*	*
8E/L	4EE\	8 6	.	8E/L	.	8e/L	.	2eee\	.	(2ee\	San-	.	1e	.	1e	.	2cc\	.	2ccc\	.
8E/	.	.	.	8E/	.	8e/	.	.	.	.	.	.	.	.	.	.	.	.	.	.
8E/	4EE\	.	.	8E/	.	8e/	.	.	.	.	.	.	.	.	.	.	.	.	.	.
8E/J	.	.	.	8E/J	.	8e/J	.	.	.	.	.	.	.	.	.	.	.	.	.	.
8E/L	4EE\	7 #3	.	8E/L	.	8e/L	.	2ddd\	.	2dd\)	.	.	.	.	.	.	2b\	.	2bb\	.
8E/	.	.	.	8E/	.	8e/	.	.	.	.	.	.	.	.	.	.	.	.	.	.
8E/	4EE\	.	.	8E/	.	8e/	.	.	.	.	.	.	.	.	.	.	.	.	.	.
8E/J	.	.	.	8E/J	.	8e/J	.	.	.	.	.	.	.	.	.	.	.	.	.	.
=13	=13	=13	=13	=13	=13	=13	=13	=13	=13	=13	=13	=13	=13	=13	=13	=13	=13	=13	=13	=13
8E/L	4EE\	6 4	.	8E/L	.	8e/L	.	2ccc\	.	2cc\	-ctus	.	2.e/	.	2.e/	.	2a/	.	2aa\	.
8E/	.	.	.	8E/	.	8e/	.	.	.	.	.	.	.	.	.	.	.	.	.	.
8E/	4EE\	.	.	8E/	.	8e/	.	.	.	.	.	.	.	.	.	.	.	.	.	.
8E/J	.	.	.	8E/J	.	8e/	.	.	.	.	.	.	.	.	.	.	.	.	.	.
*Xtremolo	*	*	*	*Xtremolo	*	*	*	*	*	*	*	*	*	*	*	*	*	*	*	*
!LO:TX:a:i:t=uniso	!	!	!	!	!	!	!	!	!	!	!	!	!	!	!	!	!	!	!	!
2ryy	8E\L	.	.	8E/L	.	8e/	.	2r	.	2r	.	.	.	.	.	.	8e/L	.	2r	.
.	8E\J	.	.	8E/J	.	8e/J	.	.	.	.	.	.	.	.	.	.	8e/J	.	.	.
*	*	*	*	*	*	*Xtremolo	*	*	*	*	*	*	*	*	*	*	*	*	*	*
.	16F\LL	.	.	(16F/LL	.	16f/LL	.	.	.	.	.	.	4r	.	4r	.	(16f/LL	.	.	.
.	16E\	.	.	16E/	.	16e/	.	.	.	.	.	.	.	.	.	.	16e/	.	.	.
.	16D#X\	.	.	16D#X/	.	16d#X/	.	.	.	.	.	.	.	.	.	.	16d#X/	.	.	.
.	16E\JJ	.	.	16E/JJ)	.	16e/JJ	.	.	.	.	.	.	.	.	.	.	16e/JJ)	.	.	.
!	!	!	!	!	!	!LO:LB:g=original	!	!	!	!	!	!	!	!	!	!	!	!	!	!
=14	=14	=14	=14	=14	=14	=14	=14	=14	=14	=14	=14	=14	=14	=14	=14	=14	=14	=14	=14	=14
*tremolo	*	*	*	*tremolo	*	*tremolo	*	*	*	*	*	*	*	*	*	*	*	*	*	*
8E/L	4EE\	7_ #3_	.	8E/L	.	8e/L	.	4.fff\	.	(4.ff\	San-	.	1e	.	1e	.	4.dd\	.	4.ddd\	.
8E/	.	.	.	8E/	.	8e/	.	.	.	.	.	.	.	.	.	.	.	.	.	.
8E/	4EE\	.	.	8E/	.	8e/	.	.	.	.	.	.	.	.	.	.	.	.	.	.
8E/J	.	.	.	8E/J	.	8e/J	.	8eee\	.	8ee\)	.	.	.	.	.	.	8cc\	.	8ccc\	.
!	!	!	!	!LO:TX:t=P:problem:wszystkie custos użyte jako łamanie pięciolinii	!	!	!	!	!	!	!	!	!	!	!	!	!	!	!	!
!	!	!	!	!LO:SIC:v:t=custos ff	!	!	!	!	!	!	!	!	!	!	!	!	!	!	!	!
!	!	!	!	!LO:LB:g=original	!	!	!	!	!	!	!	!	!	!	!	!	!	!	!LO:LB:g=original	!
8E/L	4EE\	.	.	8E/L	.	8e/L	.	8ddd\L	.	(8dd\L	-ctus	.	.	.	.	.	8b\L	.	8bb\L	.
8E/	.	.	.	8E/	.	8e/	.	8fff\	.	8ff\	.	.	.	.	.	.	8dd\	.	8ddd\	.
8E/	4EE\	.	.	8E/	.	8e/	.	8eee\	.	8ee\	.	.	.	.	.	.	8cc\	.	8ccc\	.
8E/J	.	.	.	8E/J	.	8e/J	.	8ddd\J	.	8dd\J)	.	.	.	.	.	.	8b\J	.	8bb\J	.
=15	=15	=15	=15	=15	=15	=15	=15	=15	=15	=15	=15	=15	=15	=15	=15	=15	=15	=15	=15	=15
*	*	*	*	*	*	*rep	*	*	*	*	*	*	*	*	*	*	*	*	*	*
!	!	!	!	!LO:TX:t=P:problem:takt zapisany powtórką	!	!	!	!	!	!	!	!	!	!	!	!	!	!	!	!
8E/L	4EE\	6_ 4_	.	8E/L	.	8e/L	.	4.eee\	.	(4.ee\	Do-	.	1e	.	1e	.	4.cc\	.	4.ccc\	.
8E/	.	.	.	8E/	.	8e/	.	.	.	.	.	.	.	.	.	.	.	.	.	.
8E/	4EE\	.	.	8E/	.	8e/	.	.	.	.	.	.	.	.	.	.	.	.	.	.
!	!	!	!	!	!	!	!	!LO:N:vis=4	!	!	!	!	!	!	!	!	!	!	!	!
!	!	!	!	!	!	!	!	!LO:TX:t=P:problem:wszystkie custos użyte jako łamanie pięciolinii	!	!	!	!	!	!	!	!	!	!	!	!
!	!	!	!	!	!	!	!	!LO:SIC:v:t=custos ff	!	!	!	!	!	!	!	!	!	!	!	!
8E/J	.	.	.	8E/J	.	8e/J	.	8ddd\	.	8dd\)	.	.	.	.	.	.	8b\	.	8bb\	.
8E/L	4EE\	.	.	8E/L	.	8e/L	.	8ccc\L	.	(8cc\L	-mi-	.	.	.	.	.	8a\L	.	8aa\L	.
8E/	.	.	.	8E/	.	8e/	.	8eee\	.	8ee\)	.	.	.	.	.	.	8cc\	.	8ccc\	.
8E/	4EE\	.	.	8E/	.	8e/	.	8ddd\	.	(8dd\	-nus	.	.	.	.	.	8b\	.	8bb\	.
8E/J	.	.	.	8E/J	.	8e/J	.	8ccc\J	.	8cc\J)	.	.	.	.	.	.	8a\J	.	8aa\J	.
*	*	*	*	*	*	*Xrep	*	*	*	*	*	*	*	*	*	*	*	*	*	*
!	!	!	!	!	!	!	!	!	!	!LO:LB:g=original	!	!	!	!	!	!	!	!	!	!
=16	=16	=16	=16	=16	=16	=16	=16	=16	=16	=16	=16	=16	=16	=16	=16	=16	=16	=16	=16	=16
*	*	*	*	*rep	*	*rep	*	*	*	*	*	*	*	*	*	*	*	*	*	*
8E/L	4EE\	5 #3	.	8E/L	.	8e/L	.	2bb 2ee\	.	2b\	De-	.	1e	.	1e	.	2g#X/	.	2gg#X\	.
8E/	.	.	.	8E/	.	8e/	.	.	.	.	.	.	.	.	.	.	.	.	.	.
8E/	4EE\	.	.	8E/	.	8e/	.	.	.	.	.	.	.	.	.	.	.	.	.	.
8E/J	.	.	.	8E/J	.	8e/J	.	.	.	.	.	.	.	.	.	.	.	.	.	.
8E/L	4EE\	6 4	.	8E/L	.	8e/L	.	2ccc 2ee\	.	2cc\	-us	.	.	.	.	.	2a/	.	2aa\	.
8E/	.	.	.	8E/	.	8e/	.	.	.	.	.	.	.	.	.	.	.	.	.	.
8E/	4EE\	.	.	8E/	.	8e/	.	.	.	.	.	.	.	.	.	.	.	.	.	.
8E/J	.	.	.	8E/J	.	8e/J	.	.	.	.	.	.	.	.	.	.	.	.	.	.
*Xtremolo	*	*	*	*Xrep	*	*Xrep	*	*	*	*	*	*	*	*	*	*	*	*	*	*
!	!	!	!	!	!	!	!	!	!	!	!	!	!LO:LB:g=original	!	!	!	!	!	!	!
*v	*v	*	*	*	*	*	*	*	*	*	*	*	*	*	*	*	*	*	*	*
=17	=17	=17	=17	=17	=17	=17	=17	=17	=17	=17	=17	=17	=17	=17	=17	=17	=17	=17	=17
8E 8EE/	5_ #3_	.	8E/L	.	8e/L	.	8bbL 8ee\	.	(8b\L	Sa-	.	2e/	.	2e/	.	8g#X/L	.	8gg#X\L	.
8r	.	.	8E/	.	8e/	.	8ccc 8ee\	.	8cc\J)	.	.	.	.	.	.	8a/	.	8aa\	.
8E 8EE/	.	.	8E/	.	8e/	.	8bb 8ee\	.	(8b\L	-ba-	.	.	.	.	.	8g#/	.	8gg#\	.
8r	.	.	8E/J	.	8e/J	.	8cccJ 8ee\	.	8cc\J)	.	.	.	.	.	.	8a/J	.	8aa\J	.
*	*	*	*Xtremolo	*	*Xtremolo	*	*	*	*	*	*	*	*	*	*	*	*	*	*
8E 8EE/	.	.	4E/	.	4e/	.	4gg 4ee\	.	4b\	-oth	.	4e/	.	4e/	.	4g#/	.	4gg#\	.
8r	.	.	.	.	.	.	.	.	.	.	.	.	.	.	.	.	.	.	.
4r	x	.	4r	.	4r	.	4ee\	.	4r	.	.	4r	.	4r	.	4r	.	4r	.
=18	=18	=18	=18	=18	=18	=18	=18	=18	=18	=18	=18	=18	=18	=18	=18	=18	=18	=18	=18
!LO:TX:a:i:t=tasto Solo	!	!	!LO:TX:a:i:t=pizzicato	!	!LO:TX:a:i:t=pizzicato	!	!LO:TX:b:i:t=Solo:rj	!	!LO:TX:a:i:t=Solo:rj	!	!	!LO:TX:a:t=8	!	!LO:TX:a:t=8	!	!LO:TX:a:t=7	!	!LO:TX:a:t=7	!
4r	.	.	4r	.	4r	.	2.ccc#X\	.	2.cc#X\	San-	.	00r	.	00r	.	00r	.	00r	.
8AA/	.	.	4c#X/	.	4a 4e/	.	.	.	.	.	.	.	.	.	.	.	.	.	.
8r	.	.	.	.	.	.	.	.	.	.	.	.	.	.	.	.	.	.	.
8AA/	.	.	4c#/	.	4a 4e/	.	.	.	.	.	.	.	.	.	.	.	.	.	.
8r	.	.	.	.	.	.	.	.	.	.	.	.	.	.	.	.	.	.	.
8AA/	.	.	4c#/	.	4a 4e/	.	8ddd\L	.	(8dd\L	-ctus	.	.	.	.	.	.	.	.	.
8r	.	.	.	.	.	.	8eee\J	.	8ee\J)	.	.	.	.	.	.	.	.	.	.
=19	=19	=19	=19	=19	=19	=19	=19	=19	=19	=19	=19	=19	=19	=19	=19	=19	=19	=19	=19
4r	.	.	4r	.	4r	.	4eee\	.	(4ee\	San-	.	.	.	.	.	.	.	.	.
8D\	.	.	4f#X\	.	4b 4d/	.	2ff#X\	.	2f#X\)	.	.	.	.	.	.	.	.	.	.
8r	.	.	.	.	.	.	.	.	.	.	.	.	.	.	.	.	.	.	.
8D\	.	.	4f#\	.	4b 4d/	.	.	.	.	.	.	.	.	.	.	.	.	.	.
8r	.	.	.	.	.	.	.	.	.	.	.	.	.	.	.	.	.	.	.
8D\	.	.	4f#\	.	4b 4d/	.	4ddd\	.	4dd\	-ctus	.	.	.	.	.	.	.	.	.
8r	.	.	.	.	.	.	.	.	.	.	.	.	.	.	.	.	.	.	.
=20	=20	=20	=20	=20	=20	=20	=20	=20	=20	=20	=20	=20	=20	=20	=20	=20	=20	=20	=20
4r	.	.	4r	.	4r	.	2gg#X\	.	2g#X\	Do-	.	.	.	.	.	.	.	.	.
4E\	.	.	4d 4B/	.	4g#X/	.	.	.	.	.	.	.	.	.	.	.	.	.	.
4r	.	.	4r	.	4r	.	4.aa\	.	4.a\	-mi-	.	.	.	.	.	.	.	.	.
4E\	.	.	4c#X/	.	4a 4e/	.	.	.	.	.	.	.	.	.	.	.	.	.	.
.	.	.	.	.	.	.	8ccc#X\	.	8cc#X\	-nus	.	.	.	.	.	.	.	.	.
!LO:LB:g=original	!	!	!	!	!	!	!	!	!	!	!	!	!	!	!	!	!	!	!
=21	=21	=21	=21	=21	=21	=21	=21	=21	=21	=21	=21	=21	=21	=21	=21	=21	=21	=21	=21
4r	.	.	4r	.	4r	.	2ccc#X\	.	2cc#X\	De-	.	.	.	.	.	.	.	.	.
4E\	.	.	4c#X/	.	4a 4e/	.	.	.	.	.	.	.	.	.	.	.	.	.	.
4E\	.	.	4e 4B/	.	4g#X/	.	4bb\	.	(4b\	-us	.	.	.	.	.	.	.	.	.
4r	.	.	4r	.	4r	.	4ee\	.	4e\)	.	.	.	.	.	.	.	.	.	.
=22	=22	=22	=22	=22	=22	=22	=22	=22	=22	=22	=22	=22	=22	=22	=22	=22	=22	=22	=22
4r	.	.	4r	.	4r	.	2.ccc#X\	.	2.cc#X\	Do-	.	00r	.	00r	.	0r	.	0r	.
8A\	.	.	4c#X/	.	4a 4e/	.	.	.	.	.	.	.	.	.	.	.	.	.	.
8r	.	.	.	.	.	.	.	.	.	.	.	.	.	.	.	.	.	.	.
8A\	.	.	4c#/	.	4a 4e/	.	.	.	.	.	.	.	.	.	.	.	.	.	.
8r	.	.	.	.	.	.	.	.	.	.	.	.	.	.	.	.	.	.	.
8A\	.	.	4c#/	.	4a 4e/	.	8ddd\L	.	8dd\	-mi-	.	.	.	.	.	.	.	.	.
8r	.	.	.	.	.	.	8eee\J	.	8ee\	-nus	.	.	.	.	.	.	.	.	.
=23	=23	=23	=23	=23	=23	=23	=23	=23	=23	=23	=23	=23	=23	=23	=23	=23	=23	=23	=23
4r	.	.	4r	.	4r	.	[2ggg#X\	.	([2gg#X\	De-	.	.	.	.	.	.	.	.	.
8D\	.	.	4f#X\	.	4b 4d/	.	.	.	.	.	.	.	.	.	.	.	.	.	.
8r	.	.	.	.	.	.	.	.	.	.	.	.	.	.	.	.	.	.	.
8D\	.	.	4f#\	.	4b 4d/	.	8ggg#\L]	.	8gg#\L]	.	.	.	.	.	.	.	.	.	.
8r	.	.	.	.	.	.	8fff#X\	.	8ff#X\J)	.	.	.	.	.	.	.	.	.	.
8D\	.	.	4f#\	.	4b 4d/	.	8ddd\	.	(8dd\L	-us	.	.	.	.	.	.	.	.	.
8r	.	.	.	.	.	.	8bb\J	.	8b\J)	.	.	.	.	.	.	.	.	.	.
=24	=24	=24	=24	=24	=24	=24	=24	=24	=24	=24	=24	=24	=24	=24	=24	=24	=24	=24	=24
!	!	!	!	!	!	!	!LO:TX:t=P:problem:obiegnik przekreślony:global	!	!LO:TX:t=P:problem:obiegnik przekreślony:global	!	!	!	!	!	!	!	!	!	!
4r	.	.	4r	.	4r	.	2aa 2cc#X$Ss\	.	2a\$sS	sa-	.	.	.	.	.	1r	.	1r	.
4E\	.	.	4c#X/	.	4a 4e/	.	.	.	.	.	.	.	.	.	.	.	.	.	.
4r	.	.	4r	.	4r	.	4.ccc#X 4.ee\	.	(4.cc#X\	-ba-	.	.	.	.	.	.	.	.	.
4E\	.	.	4d 4B/	.	4g#X/	.	.	.	.	.	.	.	.	.	.	.	.	.	.
.	.	.	.	.	.	.	8bb 8dd\	.	8b\)	.	.	.	.	.	.	.	.	.	.
=25	=25	=25	=25	=25	=25	=25	=25	=25	=25	=25	=25	=25	=25	=25	=25	=25	=25	=25	=25
!	!	!	!	!	!	!	!	!	!	!	!	!	!	!	!	!	!	!LO:TX:a:i:t=Solo	!
8r	.	.	8r	.	8r	.	2bb 2dd\	.	(2b\	-oth	.	.	.	.	.	2r	.	2r	.
!LO:TX:a:t=e	!	!	!	!	!	!	!	!	!	!	!	!	!	!	!	!	!	!	!
8E\L	8 #3	.	8G#X/L	.	8e/L	.	.	.	.	.	.	.	.	.	.	.	.	.	.
8F#X\	7 3	.	8A/	.	8e/	.	.	.	.	.	.	.	.	.	.	.	.	.	.
8G#X\J	6 3	.	8B/J	.	8e/J	.	.	.	.	.	.	.	.	.	.	.	.	.	.
4A\	5 #3	.	4c#X/	.	4e/	.	4aa 4cc#X\	.	4a\)	.	.	.	.	.	.	4r	.	4r	.
!	!	!	!	!	!	!	!	!	!	!	!	!	!	!	!	!LO:TX:a:i:t=Solo	!	!	!
4r	.	.	4r	.	4r	.	4r	.	4r	.	.	.	.	.	.	4e/	.	4ee\	.
!	!	!	!	!	!	!	!	!	!	!	!	!	!	!	!	!LO:LB:g=original	!	!	!
=26	=26	=26	=26	=26	=26	=26	=26	=26	=26	=26	=26	=26	=26	=26	=26	=26	=26	=26	=26
!	!	!	!	!	!	!	!LO:TX:a:i:t=pizzicato	!	!	!	!	!LO:TX:a:t=9	!	!LO:TX:a:t=9	!	!	!	!	!
1E 1EE	5 #3	.	8E/L	.	8G#X'/L	.	8G#X/L	.	2b\	ple-	.	00r	.	00r	.	[2b\	.	[2bb\	.
.	.	.	8G#X/	.	8B'/	.	8B/	.	.	.	.	.	.	.	.	.	.	.	.
.	.	.	8B/	.	8e'/	.	8e/	.	.	.	.	.	.	.	.	.	.	.	.
.	.	.	8e/J	.	8g#y'/J	.	8g#y/J	.	.	.	.	.	.	.	.	.	.	.	.
!	!	!	!	!	!	!	!LO:SIC:v:t=custos g	!	!	!	!	!	!	!	!	!	!	!	!
!	!	!	!	!	!	!	!LO:LB:g=original	!	!	!	!	!	!	!	!	!	!	!	!
.	.	.	8g#y/L	.	8b'/L	.	8b/L	.	4.b\	-ni	.	.	.	.	.	4.b\]	.	4.bb\]	.
.	.	.	8e/	.	8g#'/	.	8g#/	.	.	.	.	.	.	.	.	.	.	.	.
.	.	.	8B/	.	8e'/	.	8e/	.	.	.	.	.	.	.	.	.	.	.	.
.	.	.	8G#/J	.	8B'/J	.	8B/J	.	8e/	sunt	.	.	.	.	.	8e/	.	8ee\	.
!	!	!	!	!	!LO:LB:g=original	!	!	!	!	!	!	!	!	!	!	!	!	!	!
=27	=27	=27	=27	=27	=27	=27	=27	=27	=27	=27	=27	=27	=27	=27	=27	=27	=27	=27	=27
1E 1EE	6 4	.	8E/L	.	8A'/L	.	8A/L	.	2cc\	cae-	.	.	.	.	.	(2cc\	.	2ccc\	.
.	.	.	8A/	.	8c'/	.	8c/	.	.	.	.	.	.	.	.	.	.	.	.
.	.	.	8c/	.	8e'/	.	8e/	.	.	.	.	.	.	.	.	.	.	.	.
.	.	.	8e/J	.	8a'/J	.	8a/J	.	.	.	.	.	.	.	.	.	.	.	.
.	.	.	8a/L	.	8cc'/L	.	8cc/L	.	8cc\L	-li	.	.	.	.	.	8cc\L	.	8ccc\L	.
.	.	.	8e/	.	8a'/	.	8a/	.	16dd\L	.	.	.	.	.	.	16dd\L)	.	16ddd\L	.
.	.	.	.	.	.	.	.	.	16cc\JJ	.	.	.	.	.	.	16cc\JJ	.	16ccc\JJ	.
.	.	.	8c/	.	8e'/	.	8e/	.	8b\L	et	.	.	.	.	.	8b\L	.	8bb\L	.
.	.	.	8A/J	.	8c'/J	.	8c/J	.	8cc\J	.	.	.	.	.	.	8cc\J	.	8ccc\J	.
!	!	!	!LO:LB:g=original	!	!	!	!	!	!LO:LB:g=original	!	!	!	!	!	!	!	!	!	!
=28	=28	=28	=28	=28	=28	=28	=28	=28	=28	=28	=28	=28	=28	=28	=28	=28	=28	=28	=28
*rep	*	*	*rep	*	*rep	*	*rep	*	*	*	*	*	*	*	*	*	*	*	*
1E 1EE	.	.	8E/L	.	8A'/L	.	8A/L	.	2..ee\	ter-	.	.	.	.	.	2..ee\	.	2..eee\	.
.	.	.	8A/	.	8c'/	.	8c/	.	.	.	.	.	.	.	.	.	.	.	.
.	.	.	8c/	.	8e'/	.	8e/	.	.	.	.	.	.	.	.	.	.	.	.
.	.	.	8e/J	.	8a'/J	.	8a/J	.	.	.	.	.	.	.	.	.	.	.	.
.	.	.	8a/L	.	8cc'/L	.	8cc/L	.	.	.	.	.	.	.	.	.	.	.	.
.	.	.	8e/	.	8a'/	.	8a/	.	.	.	.	.	.	.	.	.	.	.	.
.	.	.	8c/	.	8e'/	.	8e/	.	.	.	.	.	.	.	.	.	.	.	.
.	.	.	8A/J	.	8c'/J	.	8c/J	.	(16dd\LL	-ra	.	.	.	.	.	(16dd\LL	.	16ddd\LL	.
.	.	.	.	.	.	.	.	.	16cc\JJ)	.	.	.	.	.	.	16cc\JJ)	.	16ccc\JJ	.
*Xrep	*	*	*Xrep	*	*Xrep	*	*Xrep	*	*	*	*	*	*	*	*	*	*	*	*
=29	=29	=29	=29	=29	=29	=29	=29	=29	=29	=29	=29	=29	=29	=29	=29	=29	=29	=29	=29
*rep	*	*	*	*	*	*	*	*	*	*	*	*	*	*	*	*	*	*	*
1E 1EE	5_ #3_	.	8E/L	.	8G#X'/L	.	8G#X/L	.	4.b\	glo-	.	.	.	.	.	(4.b\	.	(4.bb\	.
.	.	.	8G#X/	.	8B'/	.	8B/	.	.	.	.	.	.	.	.	.	.	.	.
.	.	.	8B/	.	8e'/	.	8e/	.	.	.	.	.	.	.	.	.	.	.	.
.	.	.	8e/J	.	8g#y'/J	.	8g#y/J	.	(16dd\LL	-ri-	.	.	.	.	.	16dd\LL	.	16ddd\LL	.
.	.	.	.	.	.	.	.	.	16cc\JJ)	.	.	.	.	.	.	16cc\JJ)	.	16ccc\JJ)	.
.	.	.	8g#y/L	.	8b'/L	.	8b/L	.	4b\	-a	.	.	.	.	.	4b\	.	4bb\	.
.	.	.	8e/	.	8g#'/	.	8g#/	.	.	.	.	.	.	.	.	.	.	.	.
.	.	.	8B/	.	8e'/	.	8e/	.	4r	.	.	.	.	.	.	4r	.	4r	.
.	.	.	8G#/J	.	8B'/J	.	8B/J	.	.	.	.	.	.	.	.	.	.	.	.
*Xrep	*	*	*	*	*	*	*	*	*	*	*	*	*	*	*	*	*	*	*
=30	=30	=30	=30	=30	=30	=30	=30	=30	=30	=30	=30	=30	=30	=30	=30	=30	=30	=30	=30
*rep	*	*	*	*	*	*	*	*	*	*	*	*	*	*	*	*	*	*	*
1E 1EE	.	.	8G#X/L	.	8B/L	.	8B/L	.	(4ee\	glo-	.	00r	.	00r	.	4ee\	.	4eee\	.
.	.	.	8B/	.	8d/	.	8d/	.	.	.	.	.	.	.	.	.	.	.	.
.	.	.	8d/	.	8e/	.	8e/	.	2ff\)	.	.	.	.	.	.	2ff\	.	2fff\	.
.	.	.	8e/J	.	8g#X/J	.	8g#X/J	.	.	.	.	.	.	.	.	.	.	.	.
.	.	.	8g#y/L	.	8b/L	.	8b/L	.	.	.	.	.	.	.	.	.	.	.	.
.	.	.	8e/	.	8g#/	.	8g#/	.	.	.	.	.	.	.	.	.	.	.	.
.	.	.	8d/	.	8e/	.	8e/	.	8ee\	-ri-	.	.	.	.	.	8ee\L	.	8eee\L	.
.	.	.	8B/J	.	8d/J	.	8d/J	.	8dd\	-a	.	.	.	.	.	8dd\J	.	8ddd\J	.
*Xrep	*	*	*	*	*	*	*	*	*	*	*	*	*	*	*	*	*	*	*
=31	=31	=31	=31	=31	=31	=31	=31	=31	=31	=31	=31	=31	=31	=31	=31	=31	=31	=31	=31
*rep	*	*	*	*	*	*	*	*	*	*	*	*	*	*	*	*	*	*	*
1E 1EE	6 4	.	8E/L	.	8A/L	.	8A/L	.	(4dd\	tu-	.	.	.	.	.	4dd\	.	4ddd\	.
.	.	.	8A/	.	8c/	.	8c/	.	.	.	.	.	.	.	.	.	.	.	.
.	.	.	8c/	.	8e/	.	8e/	.	2cc\)	.	.	.	.	.	.	2cc\	.	2ccc\	.
.	.	.	8e/J	.	8a/J	.	8a/J	.	.	.	.	.	.	.	.	.	.	.	.
.	.	.	8a/L	.	8cc/L	.	8cc/L	.	.	.	.	.	.	.	.	.	.	.	.
.	.	.	8e/	.	8a/	.	8a/	.	.	.	.	.	.	.	.	.	.	.	.
.	.	.	8c/	.	8e/	.	8e/	.	4a\	-a	.	.	.	.	.	4a/	.	4aa\	.
.	.	.	8A/J	.	8c/J	.	8c/J	.	.	.	.	.	.	.	.	.	.	.	.
*Xrep	*	*	*	*	*	*	*	*	*	*	*	*	*	*	*	*	*	*	*
=32	=32	=32	=32	=32	=32	=32	=32	=32	=32	=32	=32	=32	=32	=32	=32	=32	=32	=32	=32
*rep	*	*	*	*	*	*	*	*	*	*	*	*	*	*	*	*	*	*	*
1E 1EE	.	.	8E-X/L	.	8A/L	.	8A/L	.	(4dd\	glo-	.	.	.	.	.	4dd\	.	4ddd\	.
.	.	.	8A/	.	8c/	.	8c/	.	.	.	.	.	.	.	.	.	.	.	.
.	.	.	8c/	.	8e-X/	.	8e-X/	.	4cc\)	.	.	.	.	.	.	4cc\	.	4ccc\	.
.	.	.	8e/J	.	8a/J	.	8a/J	.	.	.	.	.	.	.	.	.	.	.	.
.	.	.	8a/L	.	8cc/L	.	8cc/L	.	4b\	-ri-	.	.	.	.	.	4b\	.	4bb\	.
.	.	.	8e/	.	8a/	.	8a/	.	.	.	.	.	.	.	.	.	.	.	.
.	.	.	8c/	.	8e-/	.	8e-/	.	4a\	-a	.	.	.	.	.	4a\	.	4aa\	.
.	.	.	8A/J	.	8c/J	.	8c/J	.	.	.	.	.	.	.	.	.	.	.	.
*Xrep	*	*	*	*	*	*	*	*	*	*	*	*	*	*	*	*	*	*	*
!	!	!	!	!	!	!	!	!	!	!	!	!	!	!	!	!	!	!LO:LB:g=original	!
=33	=33	=33	=33	=33	=33	=33	=33	=33	=33	=33	=33	=33	=33	=33	=33	=33	=33	=33	=33
!	!	!	!LO:TX:a:i:t=arco	!	!LO:TX:a:i:t=arco	!LO:DY:rj	!LO:TX:a:i:t=arco	!	!	!	!	!	!	!	!	!	!	!LO:TR:acc=none	!
8EL 8EE\	8	.	8r	f	8r	ff	8r	f	1ee	tu-	.	.	.	.	.	1eett	.	2eee#Xtt\	.
8E\J	8	.	8e\	.	8e/	.	8e/	.	.	.	.	.	.	.	.	.	.	.	.
4E\	7 5	.	4b\	.	4dd 4e/	.	4dd 4e/	.	.	.	.	.	.	.	.	.	.	.	.
8r	.	.	8r	.	8r	.	8r	.	.	.	.	.	.	.	.	.	.	2eee#ttt\	.
8E\	8	.	8e\	.	8e/	.	8e/	.	.	.	.	.	.	.	.	.	.	.	.
4E\	#6 4	.	4a\	.	4cc#X 4e/	.	4cc#X 4e/	.	.	.	.	.	.	.	.	.	.	.	.
=34	=34	=34	=34	=34	=34	=34	=34	=34	=34	=34	=34	=34	=34	=34	=34	=34	=34	=34	=34
8r	.	.	8r	.	8r	.	8r	.	1ee	-a	.	1r	.	1r	.	2eettt\	.	1eee	.
8E\	8	.	8e/	.	8e/	.	8e/	.	.	.	.	.	.	.	.	.	.	.	.
4E\	n6 4	.	4e 4c\	.	4a/	.	4ccn 4e/	.	.	.	.	.	.	.	.	.	.	.	.
8r	.	.	8r	.	8r	.	8r	.	.	.	.	.	.	.	.	2eettt\	.	.	.
8E\	8	.	8e\	.	8e/	.	8e/	.	.	.	.	.	.	.	.	.	.	.	.
4E\	7 5 #3	.	4g#X 4Bn\	.	4g#X 4B/	.	4b 4d/	.	.	.	.	.	.	.	.	.	.	.	.
.	.	.	.	.	.	.	.	.	.	.	.	.	.	.	.	16qqdd#X/LL	.	.	.
.	.	.	.	.	.	.	.	.	.	.	.	.	.	.	.	16qqee/JJ	.	.	.
!LO:LB:g=original	!	!	!	!	!	!	!LO:LB:g=original	!	!	!	!	!	!	!	!	!	!	!	!
=35	=35	=35	=35	=35	=35	=35	=35	=35	=35	=35	=35	=35	=35	=35	=35	=35	=35	=35	=35
!LO:TX:a:i:t=tasto Solo	!	!	!LO:TX:a:i:t=pizzicato	!	!LO:TX:a:i:t=pizzicato	!	!LO:TX:a:i:t=Solo:rj	!	!	!	!	!LO:TX:a:t=8	!	!LO:TX:a:t=8	!	!LO:TX:a:t=8	!	!LO:TX:a:t=8	!
4r	.	.	4r	.	4r	.	2.ccc#X\	.	2.cc#X\	ple-	.	00r	.	00r	.	00r	.	00r	.
4AA/	.	.	4c#X/	.	4a 4e/	.	.	.	.	.	.	.	.	.	.	.	.	.	.
4AA/	.	.	4c#/	.	4a 4e/	.	.	.	.	.	.	.	.	.	.	.	.	.	.
4AA/	.	.	4c#/	.	4a 4e/	.	8ddd\L	.	8dd\	-ni	.	.	.	.	.	.	.	.	.
.	.	.	.	.	.	.	8eee\J	.	8ee\	sunt	.	.	.	.	.	.	.	.	.
!	!	!	!	!	!LO:LB:g=original	!	!	!	!	!	!	!	!	!	!	!	!	!	!
=36	=36	=36	=36	=36	=36	=36	=36	=36	=36	=36	=36	=36	=36	=36	=36	=36	=36	=36	=36
4r	.	.	4r	.	4r	.	4eee\	.	(4ee\	cae-	.	.	.	.	.	.	.	.	.
4D\	.	.	4f#X\	.	4b 4d/	.	2ff#X\	.	2f#X\)	.	.	.	.	.	.	.	.	.	.
4D\	.	.	4f#\	.	4b 4d/	.	.	.	.	.	.	.	.	.	.	.	.	.	.
4D\	.	.	4f#\	.	4b 4d/	.	4ddd\	.	4dd\	-li	.	.	.	.	.	.	.	.	.
=37	=37	=37	=37	=37	=37	=37	=37	=37	=37	=37	=37	=37	=37	=37	=37	=37	=37	=37	=37
4r	.	.	4r	.	4r	.	2gg#X\	.	2g#X\	ple-	.	.	.	.	.	.	.	.	.
4E\	.	.	4d 4B/	.	4g#X/	.	.	.	.	.	.	.	.	.	.	.	.	.	.
4r	.	.	4r	.	4r	.	4.aa\	.	4.a\	-ni	.	.	.	.	.	.	.	.	.
4E\	.	.	4c#X/	.	4a 4e/	.	.	.	.	.	.	.	.	.	.	.	.	.	.
.	.	.	.	.	.	.	8ccc#X\	.	8cc#X\	sunt	.	.	.	.	.	.	.	.	.
=38	=38	=38	=38	=38	=38	=38	=38	=38	=38	=38	=38	=38	=38	=38	=38	=38	=38	=38	=38
4r	.	.	4r	.	4r	.	2ccc#X\	.	2cc#X\	cae-	.	.	.	.	.	.	.	.	.
4E\	.	.	4c#X/	.	4a 4e/	.	.	.	.	.	.	.	.	.	.	.	.	.	.
4E\	.	.	4e 4B/	.	4g#X/	.	4bb\	.	4b\	-li	.	.	.	.	.	.	.	.	.
4r	.	.	4r	.	4r	.	4ee\	.	4e/	et	.	.	.	.	.	.	.	.	.
!	!	!	!LO:LB:g=original	!	!	!	!	!	!	!	!	!	!	!	!	!	!	!	!
=39	=39	=39	=39	=39	=39	=39	=39	=39	=39	=39	=39	=39	=39	=39	=39	=39	=39	=39	=39
4r	.	.	4r	.	4r	.	2.ccc#X\	.	2.cc#X\	ter-	.	00r	.	00r	.	00r	.	00r	.
4A\	.	.	4c#X/	.	4a 4e/	.	.	.	.	.	.	.	.	.	.	.	.	.	.
4A\	.	.	4c#/	.	4a 4e/	.	.	.	.	.	.	.	.	.	.	.	.	.	.
4A\	.	.	4c#/	.	4a 4e/	.	8ddd\L	.	(8dd\L	-ra	.	.	.	.	.	.	.	.	.
.	.	.	.	.	.	.	8eee\J	.	8ee\J)	.	.	.	.	.	.	.	.	.	.
=40	=40	=40	=40	=40	=40	=40	=40	=40	=40	=40	=40	=40	=40	=40	=40	=40	=40	=40	=40
4r	.	.	4r	.	4r	.	[2ggg#X\	.	([2gg#X\	glo-	.	.	.	.	.	.	.	.	.
4D\	.	.	4f#X\	.	4b 4d/	.	.	.	.	.	.	.	.	.	.	.	.	.	.
4D\	.	.	4f#\	.	4b 4d/	.	8ggg#\L]	.	8gg#\L]	.	.	.	.	.	.	.	.	.	.
.	.	.	.	.	.	.	8fff#X\	.	8ff#X\J)	.	.	.	.	.	.	.	.	.	.
4D\	.	.	4f#\	.	4b 4d/	.	8ddd\	.	8dd\	-ri-	.	.	.	.	.	.	.	.	.
.	.	.	.	.	.	.	8bb\J	.	8b\	-a	.	.	.	.	.	.	.	.	.
!	!	!	!	!	!	!	!	!	!LO:LB:g=original	!	!	!	!	!	!	!	!	!	!
=41	=41	=41	=41	=41	=41	=41	=41	=41	=41	=41	=41	=41	=41	=41	=41	=41	=41	=41	=41
4r	.	.	4r	.	4r	.	2aa 2cc#X$Ss\	.	2a$sS\	glo-	.	.	.	.	.	.	.	.	.
4E\	.	.	4c#X/	.	4a 4e/	.	.	.	.	.	.	.	.	.	.	.	.	.	.
!	!	!	!	!	!	!	!LO:N:n=2:vis=4.	!	!	!	!	!	!	!	!	!	!	!	!
4r	.	.	4r	.	4r	.	4ccc#X 4ee\	.	4.cc#X\	-ri-	.	.	.	.	.	.	.	.	.
4E\	.	.	4d 4B/	.	4g#X/	.	4bb 4ee\	.	.	.	.	.	.	.	.	.	.	.	.
.	.	.	.	.	.	.	.	.	8b\	-a	.	.	.	.	.	.	.	.	.
=42	=42	=42	=42	=42	=42	=42	=42	=42	=42	=42	=42	=42	=42	=42	=42	=42	=42	=42	=42
8r	.	.	8r	.	8r	.	2bb 2dd\	.	2b\	tu-	.	.	.	.	.	.	.	.	.
8E\L	8 #3	.	8G#X/L	.	8e/L	.	.	.	.	.	.	.	.	.	.	.	.	.	.
8F#X\	7 3	.	8A/	.	8e/	.	.	.	.	.	.	.	.	.	.	.	.	.	.
8G#X\J	6 3	.	8BX/J	.	8e/J	.	.	.	.	.	.	.	.	.	.	.	.	.	.
4A\	5 #3	.	4c#X/	.	4e/	.	4aa 4cc#X\	.	4a\	-e	.	.	.	.	.	.	.	.	.
4r	.	.	4r	.	4r	.	4r	.	4r	.	.	.	.	.	.	.	.	.	.
!	!	!	!	!	!	!	!	!	!	!	!	!	!	!	!	!LO:PB:g=original	!	!	!
=43	=43	=43	=43	=43	=43	=43	=43	=43	=43	=43	=43	=43	=43	=43	=43	=43	=43	=43	=43
!	!	!	!LO:TX:a:i:t=arco	!LO:DY:rj	!LO:TX:a:i:t=arco	!LO:DY:rj	!	!LO:DY:rj	!	!	!	!	!LO:DY:rj	!	!LO:DY:rj	!	!	!	!
2E 2EE/	8 5 #3	.	2g#X 2Bn/	ff	2g#X 2B/	f	2bb\	f	(2ee\	ple-	.	2e/	f	2e/	f	2gg#X\	.	2bb\	f
2E 2EE/	#7 6 4	.	2a 2c/	.	2a 2c/	.	2ccc\	.	2ee-X\)	.	.	2r	.	2r	.	2aa\	.	2ccc\	.
!	!	!	!	!	!	!	!	!	!	!	!	!	!	!LO:LB:g=original	!	!	!	!	!
=44	=44	=44	=44	=44	=44	=44	=44	=44	=44	=44	=44	=44	=44	=44	=44	=44	=44	=44	=44
4E 4EE/	8 5 #3	.	4g#X 4Bn/	.	4g#X 4B/	.	4bb\	.	4een\	-ni	.	4e/	.	4e/	.	4gg#X\	.	4bb\	.
!LO:TX:a:i:t=uniso	!	!	!	!	!	!	!	!	!	!	!	!	!	!	!	!	!	!	!
16E\LL	.	.	16E/LL	.	(16e/LL	.	(16ee\LL	.	4r	.	.	4e/	.	4e/	.	16e/LL	.	(16ee\LL	.
16D#X\	.	.	16D#X/	.	16d#X/	.	16dd#X\	.	.	.	.	.	.	.	.	16d#X/	.	16dd#X\	.
16E\	.	.	16E/	.	16e/	.	16ee\	.	.	.	.	.	.	.	.	16e/	.	16ee\	.
16D#\JJ	.	.	16D#/JJ	.	16d#/JJ)	.	16dd#\JJ)	.	.	.	.	.	.	.	.	16d#/JJ	.	16dd#\JJ)	.
4E\	.	.	4E/	.	4e/	.	4ee\	.	2r	.	.	4e/	.	4e/	.	4e/	.	4ee\	.
4rc	.	.	4r	.	4r	.	4r	.	.	.	.	4r	.	4r	.	4r	.	4r	.
=45	=45	=45	=45	=45	=45	=45	=45	=45	=45	=45	=45	=45	=45	=45	=45	=45	=45	=45	=45
*^	*	*	*	*	*	*	*	*	*	*	*	*	*	*	*	*	*	*	*
*tremolo	*	*	*	*	*	*2\right	*	*	*	*	*	*	*tremolo	*	*tremolo	*	*	*	*	*
8E/L	4EE\	6 4	.	2cc\	.	2cc\	.	2eee\	.	2ee\	ple-	.	8e/L	.	8e/L	.	2ee\	.	2ccc\	.
8E/	.	.	.	.	.	.	.	.	.	.	.	.	8e/	.	8e/	.	.	.	.	.
8E/	4EE\	.	.	.	.	.	.	.	.	.	.	.	8e/	.	8e/	.	.	.	.	.
8E/J	.	.	.	.	.	.	.	.	.	.	.	.	8e/J	.	8e/J	.	.	.	.	.
8E/L	4EE\	7 #3	.	4b\	.	4b\	.	4ddd\	.	4dd\	-ni	.	8e/L	.	8e/L	.	4dd\	.	4bb\	.
8E/	.	.	.	.	.	.	.	.	.	.	.	.	8e/	.	8e/	.	.	.	.	.
8E/	4EE\	6 4	.	4a\	.	4a\	.	4ccc\	.	4cc\	sunt	.	8e/	.	8e/	.	4cc\	.	4aa\	.
8E/J	.	.	.	.	.	.	.	.	.	.	.	.	8e/J	.	8e/J	.	.	.	.	.
*Xtremolo	*	*	*	*	*	*	*	*	*	*	*	*	*Xtremolo	*	*Xtremolo	*	*	*	*	*
!	!	!	!	!	!	!	!	!LO:LB:g=original	!	!	!	!	!	!	!	!	!	!	!	!
*v	*v	*	*	*	*	*	*	*	*	*	*	*	*	*	*	*	*	*	*	*
=46	=46	=46	=46	=46	=46	=46	=46	=46	=46	=46	=46	=46	=46	=46	=46	=46	=46	=46	=46
!LO:TX:a:i:t=uniso	!	!	!	!	!	!	!	!	!	!	!	!	!	!	!	!	!	!	!
4E 4EE/	5 #3	.	4g#X 4Bn/	.	4g#X 4B/	.	4bb\	.	4b\	cae-	.	4e/	.	4e/	.	4b/	.	4gg#X\	.
!LO:LB:g=original	!	!	!	!	!	!	!	!	!	!	!	!	!	!	!	!	!	!	!
16E\LL	.	.	16E/LL	.	16e/LL	.	(16ee\LL	.	4e/	-li	.	4e/	.	4e/	.	16e/LL	.	(16ee\LL	.
16D#X\	.	.	16D#X/	.	16d#X/	.	16dd#X\	.	.	.	.	.	.	.	.	16d#X/	.	16dd#X\	.
16E\	.	.	16E/	.	16e/	.	16ee\	.	.	.	.	.	.	.	.	16e/	.	16ee\	.
16D#\JJ	.	.	16D#/JJ	.	16d#/JJ	.	16dd#\JJ	.	.	.	.	.	.	.	.	16d#/JJ	.	16dd#\JJ)	.
4D#\	.	.	4E/	.	4e/	.	4ee\)	.	2r	.	.	4e/	.	4e/	.	4e/	.	4ee\	.
4r	.	.	4r	.	4r	.	4r	.	.	.	.	4r	.	4r	.	4r	.	4r	.
!	!	!	!	!	!LO:LB:g=original	!	!	!	!	!	!	!	!	!	!	!	!	!	!
=47	=47	=47	=47	=47	=47	=47	=47	=47	=47	=47	=47	=47	=47	=47	=47	=47	=47	=47	=47
2G 2GG\	5 3	.	2g 2G/	.	2b 2d/	.	2bb 2dd\	.	2b\	glo-	.	2G/	.	2g/	.	2dd\	.	2bb\	.
2F#X\	-7 3	.	2a 2c/	.	2cc 2e-X/	.	2ccc 2ee-X\	.	2cc\	-ri-	.	2r	.	2r	.	2ee-X\	.	2ccc\	.
=48	=48	=48	=48	=48	=48	=48	=48	=48	=48	=48	=48	=48	=48	=48	=48	=48	=48	=48	=48
*^	*	*	*	*	*	*	*	*	*	*	*	*	*	*	*	*	*	*	*
4G\	4GG\	5 3	.	4g 4G/	.	4b 4d/	.	4bb 4dd\	.	4b\	-a	.	4G/	.	4g/	.	4dd\	.	4bb\	.
!LO:TX:a:i:t=uniso	!	!	!	!	!	!	!	!	!	!	!	!	!	!	!	!	!	!	!	!
16G\LL	2.ryy	.	.	16G/LL	.	(16g/LL	.	16g/LL	.	4r	.	.	4G/	.	4g/	.	16g/LL	.	4r	.
16F#X\	.	.	.	16F#X/	.	16f#X/	.	16f#X/	.	.	.	.	.	.	.	.	16f#X/	.	.	.
16G\	.	.	.	16G/	.	16g/	.	16g/	.	.	.	.	.	.	.	.	16g/	.	.	.
16F#\JJ	.	.	.	16F#/JJ	.	16f#/JJ)	.	16f#/JJ	.	.	.	.	.	.	.	.	16f#/JJ	.	.	.
4G\	.	.	.	4G/	.	4g/	.	4g/	.	2r	.	.	4G/	.	4g/	.	4g/	.	2r	.
4r	.	.	.	4r	.	4r	.	4r	.	.	.	.	4r	.	4r	.	4r	.	.	.
*v	*v	*	*	*	*	*	*	*	*	*	*	*	*	*	*	*	*	*	*	*
=49	=49	=49	=49	=49	=49	=49	=49	=49	=49	=49	=49	=49	=49	=49	=49	=49	=49	=49	=49
*	*	*	*	*	*	*	*^	*	*	*	*	*	*	*	*	*	*	*	*
!LO:TX:a:t=2	!	!	!	!	!	!	!LO:TX:a:i:t=Clar&colon; Solo:rj	!	!	!	!	!	!LO:TX:a:t=2	!	!LO:TX:a:t=2	!	!LO:TX:a:i:t=Solo	!	!LO:TX:t=P:problem:brak taktów nr 49-50	!
0r	.	.	4.B/	.	4.B/	.	4.aa\	4.d\	.	(4.ff\	Glo-	.	0r	.	0r	.	4.aa\	.	1ryy	.
.	.	.	8c/	.	8c/	.	8gg\	8e\	.	8ee\)	.	.	.	.	.	.	8gg\	.	.	.
.	.	.	4d/	.	4d/	.	4ff\	4f\	.	4dd\	-ri-	.	.	.	.	.	4ff\	.	.	.
.	.	.	4e/	.	4e/	.	4ee\	4g\	.	4cc\	-a	.	.	.	.	.	4ee\	.	.	.
!	!	!	!LO:LB:g=original	!	!	!	!	!	!	!	!	!	!	!	!	!	!	!	!	!
=50	=50	=50	=50	=50	=50	=50	=50	=50	=50	=50	=50	=50	=50	=50	=50	=50	=50	=50	=50	=50
.	.	.	2f\	.	2f/	.	2dd/	2g\	.	2b\	tu-	.	.	.	.	.	2dd\	.	1ryy	.
.	.	.	2e\	.	2e/	.	2cc#X/	2g\	.	2a#X\	-a	.	.	.	.	.	2cc#X\	.	.	.
=51	=51	=51	=51	=51	=51	=51	=51	=51	=51	=51	=51	=51	=51	=51	=51	=51	=51	=51	=51	=51
*^	*	*	*	*	*	*	*	*	*	*	*	*	*	*	*	*	*	*	*	*
2r	2ryy	.	.	8f\L	.	8f/L	.	8dd/L	8g\L	.	(8b\L	tu-	.	2r	.	2r	.	8dd\L	.	2r	.
.	.	.	.	8e\	.	8e/	.	8cc#X/	8g\	.	8a#X\	.	.	.	.	.	.	8cc#X\	.	.	.
.	.	.	.	8f\	.	8f/	.	8dd/	8g\	.	8b\	.	.	.	.	.	.	8dd\	.	.	.
.	.	.	.	8e\J	.	8e/J	.	8cc#/J	8g\J	.	8a#\J)	.	.	.	.	.	.	8cc#\J	.	.	.
4r	4ryy	.	.	4f\	.	4f/	.	4dd/	4g\	.	4b\	-a	.	4r	.	4r	.	4dd\	.	4r	.
8r	8ryy	.	.	8r	.	8r	.	8r	8ryy	.	4r	.	.	8r	.	8r	.	4r	.	8r	.
!LO:N:vis=4	!	!	!	!	!	!	!	!	!	!	!	!	!	!	!	!	!	!	!	!	!
8G\	8GG\	7	.	8d 8B/	.	8dd 8f\	.	8gg 8bM\	8ryy	.	.	.	.	8G/	.	8g/	.	.	.	8gg\	.
*	*	*	*	*	*	*	*	*v	*v	*	*	*	*	*	*	*	*	*	*	*	*
=52	=52	=52	=52	=52	=52	=52	=52	=52	=52	=52	=52	=52	=52	=52	=52	=52	=52	=52	=52	=52
!	!	!	!	!	!	!	!	!	!	!LO:TX:a:t=1	!	!	!	!	!	!	!	!	!	!
2G\	2GG\	7	.	2d 2B/	.	2dd 2f\	.	2gg 2b\	.	1r	.	.	2G/	.	2g/	.	2r	.	2gg\	.
2r	2ryy	.	.	2r	.	2r	.	4g/	.	.	.	.	2r	.	2r	.	4r	.	2r	.
.	.	.	.	.	.	.	.	4g/yy	.	.	.	.	.	.	.	.	4g/	.	.	.
*v	*v	*	*	*	*	*	*	*	*	*	*	*	*	*	*	*	*	*	*	*
=53	=53	=53	=53	=53	=53	=53	=53	=53	=53	=53	=53	=53	=53	=53	=53	=53	=53	=53	=53
*	*	*	*	*	*	*	*^	*	*	*	*	*	*	*	*	*	*	*	*
!LO:TX:a:i:t=tasto Solo	!	!	!LO:TX:a:i:t=pizzicato	!	!LO:TX:a:i:t=pizzicato	!	!	!LO:TX:b:i:t=pizzica&colon;	!	!LO:TX:a:t=7	!	!	!LO:TX:a:t=7	!	!LO:TX:a:t=7	!	!	!	!LO:TX:a:t=7	!
4r	.	.	4r	.	4r	.	2ee/	4r	.	00r	.	.	00r	.	00r	.	2.ee\	.	00r	.
4C/	.	.	4c/	.	4c/	.	.	4e\	.	.	.	.	.	.	.	.	.	.	.	.
4C/	.	.	4c/	.	4c/	.	4ee/yy	4e\	.	.	.	.	.	.	.	.	.	.	.	.
4C/	.	.	4c/	.	4c/	.	8ff/L	4e\	.	.	.	.	.	.	.	.	8ff\L	.	.	.
.	.	.	.	.	.	.	8gg/J	.	.	.	.	.	.	.	.	.	8gg\J	.	.	.
=54	=54	=54	=54	=54	=54	=54	=54	=54	=54	=54	=54	=54	=54	=54	=54	=54	=54	=54	=54	=54
4r	.	.	4r	.	4r	.	4gg/	4r	.	.	.	.	.	.	.	.	4gg\	.	.	.
4F\	.	.	4d 4A/	.	4d/	.	4a/	4f\	.	.	.	.	.	.	.	.	4a/	.	.	.
4F\	.	.	4d 4A/	.	4d/	.	4r	4f\	.	.	.	.	.	.	.	.	4r	.	.	.
4F\	.	.	4d 4A/	.	4d/	.	4ff/	4f\	.	.	.	.	.	.	.	.	4ff\	.	.	.
=55	=55	=55	=55	=55	=55	=55	=55	=55	=55	=55	=55	=55	=55	=55	=55	=55	=55	=55	=55	=55
4r	.	.	4r	.	4r	.	2b/	4r	.	.	.	.	.	.	.	.	2b\	.	.	.
4G\	.	.	4d 4B/	.	4G/	.	.	4f\	.	.	.	.	.	.	.	.	.	.	.	.
4r	.	.	4r	.	4r	.	4.cc/	4r	.	.	.	.	.	.	.	.	4.cc\	.	.	.
4G\	.	.	4c/	.	4c/	.	.	4e\	.	.	.	.	.	.	.	.	.	.	.	.
.	.	.	.	.	.	.	8ee/	.	.	.	.	.	.	.	.	.	8ee\	.	.	.
=56	=56	=56	=56	=56	=56	=56	=56	=56	=56	=56	=56	=56	=56	=56	=56	=56	=56	=56	=56	=56
4r	.	.	4r	.	4r	.	2ee/	4r	.	.	.	.	.	.	.	.	2ee\	.	.	.
4G\	.	.	4c/	.	4c/	.	.	4e\	.	.	.	.	.	.	.	.	.	.	.	.
4G\	.	.	4B/	.	4B/	.	4dd/	4d\	.	.	.	.	.	.	.	.	4dd\	.	.	.
4r	.	.	4r	.	4r	.	4g/	4r	.	.	.	.	.	.	.	.	4g/	.	.	.
=57	=57	=57	=57	=57	=57	=57	=57	=57	=57	=57	=57	=57	=57	=57	=57	=57	=57	=57	=57	=57
4r	.	.	4r	.	4r	.	2.ee/	4r	.	0r	.	.	0r	.	0r	.	2.ee\	.	0r	.
4C/	.	.	4c/	.	4c/	.	.	4e\	.	.	.	.	.	.	.	.	.	.	.	.
4C/	.	.	4c/	.	4c/	.	.	4e\	.	.	.	.	.	.	.	.	.	.	.	.
4C/	.	.	4c/	.	4c/	.	8ff/L	4e\	.	.	.	.	.	.	.	.	8ff\L	.	.	.
.	.	.	.	.	.	.	8gg/J	.	.	.	.	.	.	.	.	.	8gg\J	.	.	.
!	!	!	!	!	!	!	!LO:LB:g=original	!	!	!	!	!	!	!	!	!	!LO:LB:g=original	!	!	!
=58	=58	=58	=58	=58	=58	=58	=58	=58	=58	=58	=58	=58	=58	=58	=58	=58	=58	=58	=58	=58
4r	.	.	4r	.	4r	.	[2bb/	4r	.	.	.	.	.	.	.	.	[2bb\	.	.	.
4F\	.	.	4d 4G/	.	4d/	.	.	4f\	.	.	.	.	.	.	.	.	.	.	.	.
4F\	.	.	4d 4G/	.	4d/	.	8bb/L]	4f\	.	.	.	.	.	.	.	.	8bb\L]	.	.	.
.	.	.	.	.	.	.	8aa/	.	.	.	.	.	.	.	.	.	8aa\	.	.	.
4F\	.	.	4d 4G/	.	4d/	.	8ff/	4f\	.	.	.	.	.	.	.	.	8ff\	.	.	.
.	.	.	.	.	.	.	8dd/J	.	.	.	.	.	.	.	.	.	8dd\J	.	.	.
!	!	!	!	!	!LO:LB:g=original	!	!	!	!	!	!	!	!	!	!	!	!	!	!	!
=59	=59	=59	=59	=59	=59	=59	=59	=59	=59	=59	=59	=59	=59	=59	=59	=59	=59	=59	=59	=59
!	!	!	!	!	!	!	!	!	!	!	!	!	!	!	!	!	!LO:TX:t=P:problem:obiegnik przekreślony	!	!	!
4r	.	.	4r	.	4r	.	2cc$sS/	4r	.	1r	.	.	1r	.	1r	.	2ccs$sS\	.	1r	.
4G\	.	.	4c/	.	4c/	.	.	4e\	.	.	.	.	.	.	.	.	.	.	.	.
!LO:LB:g=original	!	!	!	!	!	!	!	!	!	!	!	!	!	!	!	!	!	!	!	!
4r	.	.	4r	.	4r	.	4.ee/	4r	.	.	.	.	.	.	.	.	4.ee\	.	.	.
!	!	!	!	!	!LO:TX:a:i:t=arco	!	!	!	!	!	!	!	!	!	!	!	!	!	!	!
4G\	.	.	4d 4B/	.	4d 4B/	.	.	4f\	.	.	.	.	.	.	.	.	.	.	.	.
.	.	.	.	.	.	.	8dd/	.	.	.	.	.	.	.	.	.	8dd\	.	.	.
*	*	*	*	*	*	*	*v	*v	*	*	*	*	*	*	*	*	*	*	*	*
=60	=60	=60	=60	=60	=60	=60	=60	=60	=60	=60	=60	=60	=60	=60	=60	=60	=60	=60	=60
*	*	*	*tremolo	*	*tremolo	*	*tremolo	*	*	*	*	*	*	*2\right	*	*	*	*	*
!	!	!	!	!	!	!	!LO:TX:a:i:t=arco	!LO:DY:rj	!	!	!	!	!LO:DY:rj	!	!LO:DY:rj	!	!	!	!
2C/	5 3	.	32g 32G/LLL	.	32cc 32e/LLL	.	32ccc\LLL	ff	1cc	o-	.	2c/	f	2cc\	f	2cc\	f	1ccc	f
.	.	.	32g 32G/	.	32cc 32e/	.	32ccc\	.	.	.	.	.	.	.	.	.	.	.	.
.	.	.	32g 32G/	.	32cc 32e/	.	32ccc\	.	.	.	.	.	.	.	.	.	.	.	.
.	.	.	32g 32G/	.	32cc 32e/	.	32ccc\	.	.	.	.	.	.	.	.	.	.	.	.
.	.	.	32g 32G/	.	32cc 32e/	.	32ccc\	.	.	.	.	.	.	.	.	.	.	.	.
.	.	.	32g 32G/	.	32cc 32e/	.	32ccc\	.	.	.	.	.	.	.	.	.	.	.	.
.	.	.	32g 32G/	.	32cc 32e/	.	32ccc\	.	.	.	.	.	.	.	.	.	.	.	.
.	.	.	32g 32G/	.	32cc 32e/	.	32ccc\	.	.	.	.	.	.	.	.	.	.	.	.
.	.	.	32g 32G/	.	32cc 32e/	.	32ccc\	.	.	.	.	.	.	.	.	.	.	.	.
.	.	.	32g 32G/	.	32cc 32e/	.	32ccc\	.	.	.	.	.	.	.	.	.	.	.	.
.	.	.	32g 32G/	.	32cc 32e/	.	32ccc\	.	.	.	.	.	.	.	.	.	.	.	.
.	.	.	32g 32G/	.	32cc 32e/	.	32ccc\	.	.	.	.	.	.	.	.	.	.	.	.
.	.	.	32g 32G/	.	32cc 32e/	.	32ccc\	.	.	.	.	.	.	.	.	.	.	.	.
.	.	.	32g 32G/	.	32cc 32e/	.	32ccc\	.	.	.	.	.	.	.	.	.	.	.	.
.	.	.	32g 32G/	.	32cc 32e/	.	32ccc\	.	.	.	.	.	.	.	.	.	.	.	.
.	.	.	32g 32G/JJJ	.	32cc 32e/JJJ	.	32ccc\JJJ	.	.	.	.	.	.	.	.	.	.	.	.
2AA/	.	.	32a 32c/LLL	.	32cc 32e/LLL	.	32ccc\LLL	.	.	.	.	2c/	.	2cc\	.	2a\	.	.	.
.	.	.	32a 32c/	.	32cc 32e/	.	32ccc\	.	.	.	.	.	.	.	.	.	.	.	.
.	.	.	32a 32c/	.	32cc 32e/	.	32ccc\	.	.	.	.	.	.	.	.	.	.	.	.
.	.	.	32a 32c/	.	32cc 32e/	.	32ccc\	.	.	.	.	.	.	.	.	.	.	.	.
.	.	.	32a 32c/	.	32cc 32e/	.	32ccc\	.	.	.	.	.	.	.	.	.	.	.	.
.	.	.	32a 32c/	.	32cc 32e/	.	32ccc\	.	.	.	.	.	.	.	.	.	.	.	.
.	.	.	32a 32c/	.	32cc 32e/	.	32ccc\	.	.	.	.	.	.	.	.	.	.	.	.
.	.	.	32a 32c/	.	32cc 32e/	.	32ccc\	.	.	.	.	.	.	.	.	.	.	.	.
.	.	.	32a 32c/	.	32cc 32e/	.	32ccc\	.	.	.	.	.	.	.	.	.	.	.	.
.	.	.	32a 32c/	.	32cc 32e/	.	32ccc\	.	.	.	.	.	.	.	.	.	.	.	.
.	.	.	32a 32c/	.	32cc 32e/	.	32ccc\	.	.	.	.	.	.	.	.	.	.	.	.
.	.	.	32a 32c/	.	32cc 32e/	.	32ccc\	.	.	.	.	.	.	.	.	.	.	.	.
.	.	.	32a 32c/	.	32cc 32e/	.	32ccc\	.	.	.	.	.	.	.	.	.	.	.	.
.	.	.	32a 32c/	.	32cc 32e/	.	32ccc\	.	.	.	.	.	.	.	.	.	.	.	.
.	.	.	32a 32c/	.	32cc 32e/	.	32ccc\	.	.	.	.	.	.	.	.	.	.	.	.
.	.	.	32a 32c/JJJ	.	32cc 32e/JJJ	.	32ccc\JJJ	.	.	.	.	.	.	.	.	.	.	.	.
=61	=61	=61	=61	=61	=61	=61	=61	=61	=61	=61	=61	=61	=61	=61	=61	=61	=61	=61	=61
2D\	7 3	.	32f\LLL	.	32cc 32d/LLL	.	32ccc 32dd\LLL	.	(2cc\	-san-	.	2c/	.	2cc\	.	2ff\	.	2ccc\	.
.	.	.	32f\	.	32cc 32d/	.	32ccc 32dd\	.	.	.	.	.	.	.	.	.	.	.	.
.	.	.	32f\	.	32cc 32d/	.	32ccc 32dd\	.	.	.	.	.	.	.	.	.	.	.	.
.	.	.	32f\	.	32cc 32d/	.	32ccc 32dd\	.	.	.	.	.	.	.	.	.	.	.	.
.	.	.	32f\	.	32cc 32d/	.	32ccc 32dd\	.	.	.	.	.	.	.	.	.	.	.	.
.	.	.	32f\	.	32cc 32d/	.	32ccc 32dd\	.	.	.	.	.	.	.	.	.	.	.	.
.	.	.	32f\	.	32cc 32d/	.	32ccc 32dd\	.	.	.	.	.	.	.	.	.	.	.	.
.	.	.	32f\	.	32cc 32d/	.	32ccc 32dd\	.	.	.	.	.	.	.	.	.	.	.	.
.	.	.	32f\	.	32cc 32d/	.	32ccc 32dd\	.	.	.	.	.	.	.	.	.	.	.	.
.	.	.	32f\	.	32cc 32d/	.	32ccc 32dd\	.	.	.	.	.	.	.	.	.	.	.	.
.	.	.	32f\	.	32cc 32d/	.	32ccc 32dd\	.	.	.	.	.	.	.	.	.	.	.	.
.	.	.	32f\	.	32cc 32d/	.	32ccc 32dd\	.	.	.	.	.	.	.	.	.	.	.	.
.	.	.	32f\	.	32cc 32d/	.	32ccc 32dd\	.	.	.	.	.	.	.	.	.	.	.	.
.	.	.	32f\	.	32cc 32d/	.	32ccc 32dd\	.	.	.	.	.	.	.	.	.	.	.	.
.	.	.	32f\	.	32cc 32d/	.	32ccc 32dd\	.	.	.	.	.	.	.	.	.	.	.	.
.	.	.	32f\JJJ	.	32cc 32d/JJJ	.	32ccc 32dd\JJJ	.	.	.	.	.	.	.	.	.	.	.	.
2G 2GG\	5 3	.	32f 32G/LLL	.	32b 32d/LLL	.	32bb 32dd\LLL	.	2b\)	.	.	2G/	.	2g/	.	2gg\	.	2bb\	.
.	.	.	32f 32G/	.	32b 32d/	.	32bb 32dd\	.	.	.	.	.	.	.	.	.	.	.	.
.	.	.	32f 32G/	.	32b 32d/	.	32bb 32dd\	.	.	.	.	.	.	.	.	.	.	.	.
.	.	.	32f 32G/	.	32b 32d/	.	32bb 32dd\	.	.	.	.	.	.	.	.	.	.	.	.
.	.	.	32f 32G/	.	32b 32d/	.	32bb 32dd\	.	.	.	.	.	.	.	.	.	.	.	.
.	.	.	32f 32G/	.	32b 32d/	.	32bb 32dd\	.	.	.	.	.	.	.	.	.	.	.	.
.	.	.	32f 32G/	.	32b 32d/	.	32bb 32dd\	.	.	.	.	.	.	.	.	.	.	.	.
.	.	.	32f 32G/	.	32b 32d/	.	32bb 32dd\	.	.	.	.	.	.	.	.	.	.	.	.
.	.	.	32f 32G/	.	32b 32d/	.	32bb 32dd\	.	.	.	.	.	.	.	.	.	.	.	.
.	.	.	32f 32G/	.	32b 32d/	.	32bb 32dd\	.	.	.	.	.	.	.	.	.	.	.	.
.	.	.	32f 32G/	.	32b 32d/	.	32bb 32dd\	.	.	.	.	.	.	.	.	.	.	.	.
.	.	.	32f 32G/	.	32b 32d/	.	32bb 32dd\	.	.	.	.	.	.	.	.	.	.	.	.
.	.	.	32f 32G/	.	32b 32d/	.	32bb 32dd\	.	.	.	.	.	.	.	.	.	.	.	.
.	.	.	32f 32G/	.	32b 32d/	.	32bb 32dd\	.	.	.	.	.	.	.	.	.	.	.	.
.	.	.	32f 32G/	.	32b 32d/	.	32bb 32dd\	.	.	.	.	.	.	.	.	.	.	.	.
.	.	.	32f 32G/JJJ	.	32b 32d/JJJ	.	32bb 32dd\JJJ	.	.	.	.	.	.	.	.	.	.	.	.
=62	=62	=62	=62	=62	=62	=62	=62	=62	=62	=62	=62	=62	=62	=62	=62	=62	=62	=62	=62
2C/	.	.	32g 32G/LLL	.	32cc 32e/LLL	.	32ccc 32ee\LLL	.	4cc\	-na	.	2c/	.	2cc\	.	2cc\	.	1ccc	.
.	.	.	32g 32G/	.	32cc 32e/	.	32ccc 32ee\	.	.	.	.	.	.	.	.	.	.	.	.
.	.	.	32g 32G/	.	32cc 32e/	.	32ccc 32ee\	.	.	.	.	.	.	.	.	.	.	.	.
.	.	.	32g 32G/	.	32cc 32e/	.	32ccc 32ee\	.	.	.	.	.	.	.	.	.	.	.	.
.	.	.	32g 32G/	.	32cc 32e/	.	32ccc 32ee\	.	.	.	.	.	.	.	.	.	.	.	.
.	.	.	32g 32G/	.	32cc 32e/	.	32ccc 32ee\	.	.	.	.	.	.	.	.	.	.	.	.
.	.	.	32g 32G/	.	32cc 32e/	.	32ccc 32ee\	.	.	.	.	.	.	.	.	.	.	.	.
.	.	.	32g 32G/	.	32cc 32e/	.	32ccc 32ee\	.	.	.	.	.	.	.	.	.	.	.	.
.	.	.	32g 32G/	.	32cc 32e/	.	32ccc 32ee\	.	2.cc\	O-	.	.	.	.	.	.	.	.	.
.	.	.	32g 32G/	.	32cc 32e/	.	32ccc 32ee\	.	.	.	.	.	.	.	.	.	.	.	.
.	.	.	32g 32G/	.	32cc 32e/	.	32ccc 32ee\	.	.	.	.	.	.	.	.	.	.	.	.
.	.	.	32g 32G/	.	32cc 32e/	.	32ccc 32ee\	.	.	.	.	.	.	.	.	.	.	.	.
.	.	.	32g 32G/	.	32cc 32e/	.	32ccc 32ee\	.	.	.	.	.	.	.	.	.	.	.	.
.	.	.	32g 32G/	.	32cc 32e/	.	32ccc 32ee\	.	.	.	.	.	.	.	.	.	.	.	.
.	.	.	32g 32G/	.	32cc 32e/	.	32ccc 32ee\	.	.	.	.	.	.	.	.	.	.	.	.
.	.	.	32g 32G/JJJ	.	32cc 32e/JJJ	.	32ccc 32ee\JJJ	.	.	.	.	.	.	.	.	.	.	.	.
2AA/	.	.	32a 32c/LLL	.	32cc 32e/LLL	.	32ccc 32ee\LLL	.	.	.	.	2c/	.	2cc\	.	2a\	.	.	.
.	.	.	32a 32c/	.	32cc 32e/	.	32ccc 32ee\	.	.	.	.	.	.	.	.	.	.	.	.
.	.	.	32a 32c/	.	32cc 32e/	.	32ccc 32ee\	.	.	.	.	.	.	.	.	.	.	.	.
.	.	.	32a 32c/	.	32cc 32e/	.	32ccc 32ee\	.	.	.	.	.	.	.	.	.	.	.	.
.	.	.	32a 32c/	.	32cc 32e/	.	32ccc 32ee\	.	.	.	.	.	.	.	.	.	.	.	.
.	.	.	32a 32c/	.	32cc 32e/	.	32ccc 32ee\	.	.	.	.	.	.	.	.	.	.	.	.
.	.	.	32a 32c/	.	32cc 32e/	.	32ccc 32ee\	.	.	.	.	.	.	.	.	.	.	.	.
.	.	.	32a 32c/	.	32cc 32e/	.	32ccc 32ee\	.	.	.	.	.	.	.	.	.	.	.	.
.	.	.	32a 32c/	.	32cc 32e/	.	32ccc 32ee\	.	.	.	.	.	.	.	.	.	.	.	.
.	.	.	32a 32c/	.	32cc 32e/	.	32ccc 32ee\	.	.	.	.	.	.	.	.	.	.	.	.
.	.	.	32a 32c/	.	32cc 32e/	.	32ccc 32ee\	.	.	.	.	.	.	.	.	.	.	.	.
.	.	.	32a 32c/	.	32cc 32e/	.	32ccc 32ee\	.	.	.	.	.	.	.	.	.	.	.	.
.	.	.	32a 32c/	.	32cc 32e/	.	32ccc 32ee\	.	.	.	.	.	.	.	.	.	.	.	.
.	.	.	32a 32c/	.	32cc 32e/	.	32ccc 32ee\	.	.	.	.	.	.	.	.	.	.	.	.
.	.	.	32a 32c/	.	32cc 32e/	.	32ccc 32ee\	.	.	.	.	.	.	.	.	.	.	.	.
.	.	.	32a 32c/JJJ	.	32cc 32e/JJJ	.	32ccc 32ee\JJJ	.	.	.	.	.	.	.	.	.	.	.	.
!	!	!	!	!	!	!	!	!	!LO:LB:g=original	!	!	!LO:LB:g=original	!	!	!	!	!	!	!
=63	=63	=63	=63	=63	=63	=63	=63	=63	=63	=63	=63	=63	=63	=63	=63	=63	=63	=63	=63
2D\	7 3	.	32f\LLL	.	32cc 32d/LLL	.	32ccc 32dd\LLL	.	(2cc\	-ſan-	.	2c/	.	2cc\	.	2ff\	.	2ccc\	.
.	.	.	32f\	.	32cc 32d/	.	32ccc 32dd\	.	.	.	.	.	.	.	.	.	.	.	.
.	.	.	32f\	.	32cc 32d/	.	32ccc 32dd\	.	.	.	.	.	.	.	.	.	.	.	.
.	.	.	32f\	.	32cc 32d/	.	32ccc 32dd\	.	.	.	.	.	.	.	.	.	.	.	.
.	.	.	32f\	.	32cc 32d/	.	32ccc 32dd\	.	.	.	.	.	.	.	.	.	.	.	.
.	.	.	32f\	.	32cc 32d/	.	32ccc 32dd\	.	.	.	.	.	.	.	.	.	.	.	.
.	.	.	32f\	.	32cc 32d/	.	32ccc 32dd\	.	.	.	.	.	.	.	.	.	.	.	.
.	.	.	32f\	.	32cc 32d/	.	32ccc 32dd\	.	.	.	.	.	.	.	.	.	.	.	.
.	.	.	32f\	.	32cc 32d/	.	32ccc 32dd\	.	.	.	.	.	.	.	.	.	.	.	.
.	.	.	32f\	.	32cc 32d/	.	32ccc 32dd\	.	.	.	.	.	.	.	.	.	.	.	.
.	.	.	32f\	.	32cc 32d/	.	32ccc 32dd\	.	.	.	.	.	.	.	.	.	.	.	.
.	.	.	32f\	.	32cc 32d/	.	32ccc 32dd\	.	.	.	.	.	.	.	.	.	.	.	.
.	.	.	32f\	.	32cc 32d/	.	32ccc 32dd\	.	.	.	.	.	.	.	.	.	.	.	.
.	.	.	32f\	.	32cc 32d/	.	32ccc 32dd\	.	.	.	.	.	.	.	.	.	.	.	.
.	.	.	32f\	.	32cc 32d/	.	32ccc 32dd\	.	.	.	.	.	.	.	.	.	.	.	.
.	.	.	32f\JJJ	.	32cc 32d/JJJ	.	32ccc 32dd\JJJ	.	.	.	.	.	.	.	.	.	.	.	.
2G 2GG\	5 3	.	32f 32G/LLL	.	32b 32d/LLL	.	32bb 32dd\LLL	.	2b\)	.	.	2G/	.	2b/	.	2gg\	.	2bb\	.
.	.	.	32f 32G/	.	32b 32d/	.	32bb 32dd\	.	.	.	.	.	.	.	.	.	.	.	.
.	.	.	32f 32G/	.	32b 32d/	.	32bb 32dd\	.	.	.	.	.	.	.	.	.	.	.	.
.	.	.	32f 32G/	.	32b 32d/	.	32bb 32dd\	.	.	.	.	.	.	.	.	.	.	.	.
.	.	.	32f 32G/	.	32b 32d/	.	32bb 32dd\	.	.	.	.	.	.	.	.	.	.	.	.
.	.	.	32f 32G/	.	32b 32d/	.	32bb 32dd\	.	.	.	.	.	.	.	.	.	.	.	.
.	.	.	32f 32G/	.	32b 32d/	.	32bb 32dd\	.	.	.	.	.	.	.	.	.	.	.	.
.	.	.	32f 32G/	.	32b 32d/	.	32bb 32dd\	.	.	.	.	.	.	.	.	.	.	.	.
.	.	.	32f 32G/	.	32b 32d/	.	32bb 32dd\	.	.	.	.	.	.	.	.	.	.	.	.
.	.	.	32f 32G/	.	32b 32d/	.	32bb 32dd\	.	.	.	.	.	.	.	.	.	.	.	.
.	.	.	32f 32G/	.	32b 32d/	.	32bb 32dd\	.	.	.	.	.	.	.	.	.	.	.	.
.	.	.	32f 32G/	.	32b 32d/	.	32bb 32dd\	.	.	.	.	.	.	.	.	.	.	.	.
.	.	.	32f 32G/	.	32b 32d/	.	32bb 32dd\	.	.	.	.	.	.	.	.	.	.	.	.
.	.	.	32f 32G/	.	32b 32d/	.	32bb 32dd\	.	.	.	.	.	.	.	.	.	.	.	.
.	.	.	32f 32G/	.	32b 32d/	.	32bb 32dd\	.	.	.	.	.	.	.	.	.	.	.	.
.	.	.	32f 32G/JJJ	.	32b 32d/JJJ	.	32bb 32dd\JJJ	.	.	.	.	.	.	.	.	.	.	.	.
*	*	*	*Xtremolo	*	*Xtremolo	*	*Xtremolo	*	*	*	*	*	*	*	*	*	*	*	*
=64	=64	=64	=64	=64	=64	=64	=64	=64	=64	=64	=64	=64	=64	=64	=64	=64	=64	=64	=64
4C/	3_	.	4g 4G/	.	4cc 4e/	.	4ccc 4ee\	.	4cc\	-na	.	4c/	.	4b\	.	4ee\	.	4ccc\	.
4r	.	.	4r	.	4r	.	4r	.	4r	.	.	4r	.	4r	.	4r	.	4r	.
4C/	.	.	4E/	.	4.c/	.	4.e 4.G/	.	2r	.	.	4.c/	.	4.e/	.	4.e/	.	2r	.
4C/	.	.	4E/	.	.	.	.	.	.	.	.	.	.	.	.	.	.	.	.
.	.	.	.	.	8c/	.	8e 8G/	.	.	.	.	8c/	.	8e/	.	8e/	.	.	.
=65	=65	=65	=65	=65	=65	=65	=65	=65	=65	=65	=65	=65	=65	=65	=65	=65	=65	=65	=65
!	!	!	!	!	!	!	!	!	!LO:TX:a:t=1.	!	!	!	!	!	!	!	!	!LO:TX:a:t=1.	!
2C/	.	.	2E/	.	2c/	.	2e 2G/	.	1r	.	.	2c/	.	2e/	.	2e/	.	1r	.
2r	x	.	2r	.	2r	.	2r	.	.	.	.	2r	.	2r	.	2r	.	.	.
==	==	==	==	==	==	==	==	==	==	==	==	==	==	==	==	==	==	==	==
*-	*-	*-	*-	*-	*-	*-	*-	*-	*-	*-	*-	*-	*-	*-	*-	*-	*-	*-	*-
!!!system-decoration: [(g1)][(g2)]<s5>[(g3)]<s9>
!!!ENC: Mateusz Solarz
!!!END: 2020-10-23
!!!AIN: 1 clars 1 flt 1 organ 1 soprn 2 tromp 3 violn
!!!ENC: Andrzej Kubiczek
!!!END: 2022-02-09
